KINDER
CUT[SPRING SIE AUF DIE KETTE]
REG[Europa, Mitteleuropa, Deutschland, Oberlausitz]
KEY[K2098  08  F 2/4]
MEL[  1234  5_5_
    6_+1_  5_0_
    6_+1_  5_0_
    4444  3_3_
    2_5_  1_0_
    555_  333_
    2255  333_
    555_  333_
    2255  321_ //] >>
FCT[Kinder - Lied, Reigen, Tanz - Spiel]
